X: 18457
T: Hurry The Jug
R: jig
M: 6/8
K: Edorian
|:D|E3 G2A|BGE EGE|D3 F2G|AdB AFD|
E3 G2A|BGE FGA|BdB AdF|1 EGE E2 D:|2 EGE E3||
|:e3 gfe|dcd fed|edB g3|afd def|
e3 gfe|dcd AFD|BdB AdF|EGE E3:|

